images/indikatorenset/4830.svg

<?xml version="1.0" standalone="no"?>
<!DOCTYPE svg PUBLIC "-//W3C//DTD SVG 1.1//EN" "http://www.w3.org/Graphics/SVG/1.1/DTD/svg11.dtd">
<svg xmlns:xlink="http://www.w3.org/1999/xlink" version="1.1" class="highcharts-root" style="font-family:arial;font-size:12px;" xmlns="http://www.w3.org/2000/svg" viewBox="0 0 485 415">
  <desc>
    Created with Highstock 5.0.14
  </desc>
  <defs>
    <clipPath id="highcharts-mbgphay-6">
      <rect x="0" y="0" width="294" height="363" fill="none"/>
    </clipPath>
    <clipPath id="highcharts-mbgphay-7">
      <rect x="0" y="0" width="294" height="363" fill="none"/>
    </clipPath>
  </defs>
  <rect fill="#fbfbfb" class="highcharts-background" x="0" y="0" width="485" height="415" rx="0" ry="0"/>
  <rect fill="none" class="highcharts-plot-background" x="112" y="55" width="363" height="294"/>
  <g class="highcharts-pane-group"/>
  <g class="highcharts-grid highcharts-xaxis-grid ">
    <path fill="none" class="highcharts-grid-line" d="M 112 69.5 L 475 69.5" opacity="1"/>
    <path fill="none" class="highcharts-grid-line" d="M 112 83.5 L 475 83.5" opacity="1"/>
    <path fill="none" class="highcharts-grid-line" d="M 112 97.5 L 475 97.5" opacity="1"/>
    <path fill="none" class="highcharts-grid-line" d="M 112 111.5 L 475 111.5" opacity="1"/>
    <path fill="none" class="highcharts-grid-line" d="M 112 125.5 L 475 125.5" opacity="1"/>
    <path fill="none" class="highcharts-grid-line" d="M 112 139.5 L 475 139.5" opacity="1"/>
    <path fill="none" class="highcharts-grid-line" d="M 112 153.5 L 475 153.5" opacity="1"/>
    <path fill="none" class="highcharts-grid-line" d="M 112 167.5 L 475 167.5" opacity="1"/>
    <path fill="none" class="highcharts-grid-line" d="M 112 181.5 L 475 181.5" opacity="1"/>
    <path fill="none" class="highcharts-grid-line" d="M 112 195.5 L 475 195.5" opacity="1"/>
    <path fill="none" class="highcharts-grid-line" d="M 112 209.5 L 475 209.5" opacity="1"/>
    <path fill="none" class="highcharts-grid-line" d="M 112 223.5 L 475 223.5" opacity="1"/>
    <path fill="none" class="highcharts-grid-line" d="M 112 237.5 L 475 237.5" opacity="1"/>
    <path fill="none" class="highcharts-grid-line" d="M 112 251.5 L 475 251.5" opacity="1"/>
    <path fill="none" class="highcharts-grid-line" d="M 112 265.5 L 475 265.5" opacity="1"/>
    <path fill="none" class="highcharts-grid-line" d="M 112 279.5 L 475 279.5" opacity="1"/>
    <path fill="none" class="highcharts-grid-line" d="M 112 293.5 L 475 293.5" opacity="1"/>
    <path fill="none" class="highcharts-grid-line" d="M 112 307.5 L 475 307.5" opacity="1"/>
    <path fill="none" class="highcharts-grid-line" d="M 112 321.5 L 475 321.5" opacity="1"/>
    <path fill="none" class="highcharts-grid-line" d="M 112 335.5 L 475 335.5" opacity="1"/>
    <path fill="none" class="highcharts-grid-line" d="M 112 349.5 L 475 349.5" opacity="1"/>
    <path fill="none" class="highcharts-grid-line" d="M 112 55.5 L 475 55.5" opacity="1"/>
  </g>
  <g class="highcharts-grid highcharts-yaxis-grid ">
    <path fill="none" stroke="#e6e6e6" stroke-width="1" class="highcharts-grid-line" d="M 111.5 55 L 111.5 349" opacity="1"/>
    <path fill="none" stroke="#e6e6e6" stroke-width="1" class="highcharts-grid-line" d="M 163.5 55 L 163.5 349" opacity="1"/>
    <path fill="none" stroke="#e6e6e6" stroke-width="1" class="highcharts-grid-line" d="M 215.5 55 L 215.5 349" opacity="1"/>
    <path fill="none" stroke="#e6e6e6" stroke-width="1" class="highcharts-grid-line" d="M 267.5 55 L 267.5 349" opacity="1"/>
    <path fill="none" stroke="#e6e6e6" stroke-width="1" class="highcharts-grid-line" d="M 318.5 55 L 318.5 349" opacity="1"/>
    <path fill="none" stroke="#e6e6e6" stroke-width="1" class="highcharts-grid-line" d="M 370.5 55 L 370.5 349" opacity="1"/>
    <path fill="none" stroke="#e6e6e6" stroke-width="1" class="highcharts-grid-line" d="M 422.5 55 L 422.5 349" opacity="1"/>
    <path fill="none" stroke="#e6e6e6" stroke-width="1" class="highcharts-grid-line" d="M 475.5 55 L 475.5 349" opacity="1"/>
  </g>
  <rect fill="none" class="highcharts-plot-border" x="112" y="55" width="363" height="294"/>
  <g class="highcharts-axis highcharts-xaxis ">
    <path fill="none" class="highcharts-tick" stroke="#FFFFFF" stroke-width="1" d="M 112 69.5 L 102 69.5" opacity="1"/>
    <path fill="none" class="highcharts-tick" stroke="#FFFFFF" stroke-width="1" d="M 112 83.5 L 102 83.5" opacity="1"/>
    <path fill="none" class="highcharts-tick" stroke="#FFFFFF" stroke-width="1" d="M 112 97.5 L 102 97.5" opacity="1"/>
    <path fill="none" class="highcharts-tick" stroke="#FFFFFF" stroke-width="1" d="M 112 111.5 L 102 111.5" opacity="1"/>
    <path fill="none" class="highcharts-tick" stroke="#FFFFFF" stroke-width="1" d="M 112 125.5 L 102 125.5" opacity="1"/>
    <path fill="none" class="highcharts-tick" stroke="#FFFFFF" stroke-width="1" d="M 112 139.5 L 102 139.5" opacity="1"/>
    <path fill="none" class="highcharts-tick" stroke="#FFFFFF" stroke-width="1" d="M 112 153.5 L 102 153.5" opacity="1"/>
    <path fill="none" class="highcharts-tick" stroke="#FFFFFF" stroke-width="1" d="M 112 167.5 L 102 167.5" opacity="1"/>
    <path fill="none" class="highcharts-tick" stroke="#FFFFFF" stroke-width="1" d="M 112 181.5 L 102 181.5" opacity="1"/>
    <path fill="none" class="highcharts-tick" stroke="#FFFFFF" stroke-width="1" d="M 112 195.5 L 102 195.5" opacity="1"/>
    <path fill="none" class="highcharts-tick" stroke="#FFFFFF" stroke-width="1" d="M 112 209.5 L 102 209.5" opacity="1"/>
    <path fill="none" class="highcharts-tick" stroke="#FFFFFF" stroke-width="1" d="M 112 223.5 L 102 223.5" opacity="1"/>
    <path fill="none" class="highcharts-tick" stroke="#FFFFFF" stroke-width="1" d="M 112 237.5 L 102 237.5" opacity="1"/>
    <path fill="none" class="highcharts-tick" stroke="#FFFFFF" stroke-width="1" d="M 112 251.5 L 102 251.5" opacity="1"/>
    <path fill="none" class="highcharts-tick" stroke="#FFFFFF" stroke-width="1" d="M 112 265.5 L 102 265.5" opacity="1"/>
    <path fill="none" class="highcharts-tick" stroke="#FFFFFF" stroke-width="1" d="M 112 279.5 L 102 279.5" opacity="1"/>
    <path fill="none" class="highcharts-tick" stroke="#FFFFFF" stroke-width="1" d="M 112 293.5 L 102 293.5" opacity="1"/>
    <path fill="none" class="highcharts-tick" stroke="#FFFFFF" stroke-width="1" d="M 112 307.5 L 102 307.5" opacity="1"/>
    <path fill="none" class="highcharts-tick" stroke="#FFFFFF" stroke-width="1" d="M 112 321.5 L 102 321.5" opacity="1"/>
    <path fill="none" class="highcharts-tick" stroke="#FFFFFF" stroke-width="1" d="M 112 335.5 L 102 335.5" opacity="1"/>
    <path fill="none" class="highcharts-tick" stroke="#FFFFFF" stroke-width="1" d="M 112 349.5 L 102 349.5" opacity="1"/>
    <path fill="none" class="highcharts-tick" stroke="#FFFFFF" stroke-width="1" d="M 112 54.5 L 102 54.5" opacity="1"/>
    <path fill="none" class="highcharts-axis-line" stroke="#ccd6eb" stroke-width="1" d="M 111.5 55 L 111.5 349"/>
  </g>
  <g class="highcharts-axis highcharts-yaxis ">
    <path fill="none" class="highcharts-axis-line" d="M 112 349 L 475 349"/>
  </g>
  <g class="highcharts-series-group">
    <g class="highcharts-series highcharts-series-0 highcharts-scatter-series highcharts-color-undefined " transform="translate(475,349) rotate(90) scale(-1,1) scale(1 1)" clip-path="url(#highcharts-mbgphay-7)"/>
    <g class="highcharts-markers highcharts-series-0 highcharts-scatter-series highcharts-color-undefined " transform="translate(475,349) rotate(90) scale(-1,1) scale(1 1)" clip-path="none">
      <path fill="#68AB2B" d="M 291 316 A 4 4 0 1 1 290.9999980000002 315.99600000066664 Z" class="highcharts-point"/>
      <path fill="#68AB2B" d="M 277 196 A 4 4 0 1 1 276.9999980000002 195.99600000066667 Z" class="highcharts-point"/>
      <path fill="#68AB2B" d="M 263 158 A 4 4 0 1 1 262.9999980000002 157.99600000066667 Z" class="highcharts-point"/>
      <path fill="#68AB2B" d="M 249 117 A 4 4 0 1 1 248.99999800000018 116.99600000066667 Z" class="highcharts-point"/>
      <path fill="#68AB2B" d="M 235 104 A 4 4 0 1 1 234.99999800000018 103.99600000066667 Z" class="highcharts-point"/>
      <path fill="#68AB2B" d="M 221 103 A 4 4 0 1 1 220.99999800000018 102.99600000066667 Z" class="highcharts-point"/>
      <path fill="#68AB2B" d="M 207 97 A 4 4 0 1 1 206.99999800000018 96.99600000066667 Z" class="highcharts-point"/>
      <path fill="#68AB2B" d="M 193 89 A 4 4 0 1 1 192.99999800000018 88.99600000066667 Z" class="highcharts-point"/>
      <path fill="#68AB2B" d="M 179 87 A 4 4 0 1 1 178.99999800000018 86.99600000066667 Z" class="highcharts-point"/>
      <path fill="#68AB2B" d="M 165 87 A 4 4 0 1 1 164.99999800000018 86.99600000066667 Z" class="highcharts-point"/>
      <path fill="#68AB2B" d="M 151 85 A 4 4 0 1 1 150.99999800000018 84.99600000066667 Z" class="highcharts-point"/>
      <path fill="#68AB2B" d="M 137 79 A 4 4 0 1 1 136.99999800000018 78.99600000066667 Z" class="highcharts-point"/>
      <path fill="#68AB2B" d="M 123 78 A 4 4 0 1 1 122.99999800000016 77.99600000066667 Z" class="highcharts-point"/>
      <path fill="#68AB2B" d="M 109 76 A 4 4 0 1 1 108.99999800000016 75.99600000066667 Z" class="highcharts-point"/>
      <path fill="#68AB2B" d="M 95 71 A 4 4 0 1 1 94.99999800000016 70.99600000066667 Z" class="highcharts-point"/>
      <path fill="#68AB2B" d="M 81 69 A 4 4 0 1 1 80.99999800000016 68.99600000066667 Z" class="highcharts-point"/>
      <path fill="#68AB2B" d="M 67 59 A 4 4 0 1 1 66.99999800000016 58.99600000066666 Z" class="highcharts-point"/>
      <path fill="#68AB2B" d="M 53 55 A 4 4 0 1 1 52.99999800000017 54.99600000066666 Z" class="highcharts-point"/>
      <path fill="#68AB2B" d="M 39 55 A 4 4 0 1 1 38.99999800000017 54.99600000066666 Z" class="highcharts-point"/>
      <path fill="#68AB2B" d="M 25 37 A 4 4 0 1 1 24.99999800000017 36.99600000066666 Z" class="highcharts-point"/>
      <path fill="#68AB2B" d="M 11 27 A 4 4 0 1 1 10.999998000000167 26.996000000666665 Z" class="highcharts-point"/>
    </g>
    <g class="highcharts-series highcharts-series-1 highcharts-scatter-series highcharts-color-0 " visibility="hidden" transform="translate(475,349) rotate(90) scale(-1,1) scale(1 1)" clip-path="url(#highcharts-mbgphay-7)"/>
    <g class="highcharts-markers highcharts-series-1 highcharts-scatter-series highcharts-color-0 " visibility="hidden" transform="translate(475,349) rotate(90) scale(-1,1) scale(1 1)" clip-path="none"/>
  </g>
  <text x="10" text-anchor="start" class="highcharts-title" style="color:#000000;font-size:14px;font-weight:bold;font-family:arial;fill:#000000;" y="21">
    <tspan>Baujahr Wohngebäude</tspan>
  </text>
  <text x="10" text-anchor="start" class="highcharts-subtitle" style="color:#000000;font-size:12px;font-weight:normal;font-family:arial;fill:#000000;" y="40">
    <tspan>Stand: 2016</tspan>
  </text>
  <g class="highcharts-axis-labels highcharts-xaxis-labels ">
    <text x="97" style="color:#000000;cursor:default;font-size:10px;fill:#000000;" text-anchor="end" transform="translate(0,0)" y="66" opacity="1">
      <tspan>Altstadt Grossbasel</tspan>
    </text>
    <text x="97" style="color:#000000;cursor:default;font-size:10px;fill:#000000;" text-anchor="end" transform="translate(0,0)" y="80" opacity="1">
      <tspan>Altstadt Kleinbasel</tspan>
    </text>
    <text x="97" style="color:#000000;cursor:default;font-size:10px;fill:#000000;" text-anchor="end" transform="translate(0,0)" y="94" opacity="1">
      <tspan>Vorstädte</tspan>
    </text>
    <text x="97" style="color:#000000;cursor:default;font-size:10px;fill:#000000;" text-anchor="end" transform="translate(0,0)" y="108" opacity="1">
      <tspan>Am Ring</tspan>
    </text>
    <text x="97" style="color:#000000;cursor:default;font-size:10px;fill:#000000;" text-anchor="end" transform="translate(0,0)" y="122" opacity="1">
      <tspan>Gotthelf</tspan>
    </text>
    <text x="97" style="color:#000000;cursor:default;font-size:10px;fill:#000000;" text-anchor="end" transform="translate(0,0)" y="136" opacity="1">
      <tspan>Matthäus</tspan>
    </text>
    <text x="97" style="color:#000000;cursor:default;font-size:10px;fill:#000000;" text-anchor="end" transform="translate(0,0)" y="150" opacity="1">
      <tspan>Clara</tspan>
    </text>
    <text x="97" style="color:#000000;cursor:default;font-size:10px;fill:#000000;" text-anchor="end" transform="translate(0,0)" y="164" opacity="1">
      <tspan>Gundeldingen</tspan>
    </text>
    <text x="97" style="color:#000000;cursor:default;font-size:10px;fill:#000000;" text-anchor="end" transform="translate(0,0)" y="178" opacity="1">
      <tspan>St. Johann</tspan>
    </text>
    <text x="97" style="color:#000000;cursor:default;font-size:10px;fill:#000000;" text-anchor="end" transform="translate(0,0)" y="192" opacity="1">
      <tspan>Wettstein</tspan>
    </text>
    <text x="97" style="color:#000000;cursor:default;font-size:10px;fill:#000000;" text-anchor="end" transform="translate(0,0)" y="206" opacity="1">
      <tspan>Bachletten</tspan>
    </text>
    <text x="97" style="color:#000000;cursor:default;font-size:10px;fill:#000000;" text-anchor="end" transform="translate(0,0)" y="220" opacity="1">
      <tspan>Klybeck</tspan>
    </text>
    <text x="97" style="color:#000000;cursor:default;font-size:10px;fill:#000000;" text-anchor="end" transform="translate(0,0)" y="234" opacity="1">
      <tspan>Iselin</tspan>
    </text>
    <text x="97" style="color:#000000;cursor:default;font-size:10px;fill:#000000;" text-anchor="end" transform="translate(0,0)" y="248" opacity="1">
      <tspan>St. Alban</tspan>
    </text>
    <text x="97" style="color:#000000;cursor:default;font-size:10px;fill:#000000;" text-anchor="end" transform="translate(0,0)" y="262" opacity="1">
      <tspan>Breite</tspan>
    </text>
    <text x="97" style="color:#000000;cursor:default;font-size:10px;fill:#000000;" text-anchor="end" transform="translate(0,0)" y="276" opacity="1">
      <tspan>Hirzbrunnen</tspan>
    </text>
    <text x="97" style="color:#000000;cursor:default;font-size:10px;fill:#000000;" text-anchor="end" transform="translate(0,0)" y="290" opacity="1">
      <tspan>Kleinhüningen</tspan>
    </text>
    <text x="97" style="color:#000000;cursor:default;font-size:10px;fill:#000000;" text-anchor="end" transform="translate(0,0)" y="304" opacity="1">
      <tspan>Bruderholz</tspan>
    </text>
    <text x="97" style="color:#000000;cursor:default;font-size:10px;fill:#000000;" text-anchor="end" transform="translate(0,0)" y="318" opacity="1">
      <tspan>Rosental</tspan>
    </text>
    <text x="97" style="color:#000000;cursor:default;font-size:10px;fill:#000000;" text-anchor="end" transform="translate(0,0)" y="332" opacity="1">
      <tspan>Riehen</tspan>
    </text>
    <text x="97" style="color:#000000;cursor:default;font-size:10px;fill:#000000;" text-anchor="end" transform="translate(0,0)" y="346" opacity="1">
      <tspan>Bettingen</tspan>
    </text>
  </g>
  <g class="highcharts-axis-labels highcharts-yaxis-labels ">
    <text x="112" style="color:#000000;cursor:default;font-size:11px;fill:#000000;" text-anchor="middle" transform="translate(0,0)" y="368" opacity="1">
      1800
    </text>
    <text x="163.85714285714286" style="color:#000000;cursor:default;font-size:11px;fill:#000000;" text-anchor="middle" transform="translate(0,0)" y="368" opacity="1">
      1825
    </text>
    <text x="215.71428571428572" style="color:#000000;cursor:default;font-size:11px;fill:#000000;" text-anchor="middle" transform="translate(0,0)" y="368" opacity="1">
      1850
    </text>
    <text x="267.57142857142856" style="color:#000000;cursor:default;font-size:11px;fill:#000000;" text-anchor="middle" transform="translate(0,0)" y="368" opacity="1">
      1875
    </text>
    <text x="319.42857142857144" style="color:#000000;cursor:default;font-size:11px;fill:#000000;" text-anchor="middle" transform="translate(0,0)" y="368" opacity="1">
      1900
    </text>
    <text x="371.2857142857143" style="color:#000000;cursor:default;font-size:11px;fill:#000000;" text-anchor="middle" transform="translate(0,0)" y="368" opacity="1">
      1925
    </text>
    <text x="423.14285714285717" style="color:#000000;cursor:default;font-size:11px;fill:#000000;" text-anchor="middle" transform="translate(0,0)" y="368" opacity="1">
      1950
    </text>
    <text x="462.78125" style="color:#000000;cursor:default;font-size:11px;fill:#000000;" text-anchor="middle" transform="translate(0,0)" y="368" opacity="1">
      1975
    </text>
  </g>
  <text x="10" class="highcharts-credits" text-anchor="start" style="cursor:default;color:#000000;font-size:10px;fill:#000000;" y="400">
    <tspan>Quelle: Statistisches Amt Basel-Stadt, kantonale Gebäude- und Wohnungsstatistik</tspan>
  </text>
</svg>

<svg class="highcharts-root" xmlns="http://www.w3.org/2000/svg" viewBox="0 0 485 415" font-family="arial" font-size="12">
    <rect fill="#fbfbfb" class="highcharts-background" width="485" height="415" rx="0" ry="0"/>
    <path fill="none" class="highcharts-plot-background" d="M112 55h363v294H112z"/>
    <g class="highcharts-grid highcharts-xaxis-grid">
        <path fill="none" class="highcharts-grid-line" d="M112 69.5h363m-363 14h363m-363 14h363m-363 14h363m-363 14h363m-363 14h363m-363 14h363m-363 14h363m-363 14h363m-363 14h363m-363 14h363m-363 14h363m-363 14h363m-363 14h363m-363 14h363m-363 14h363m-363 14h363m-363 14h363m-363 14h363m-363 14h363m-363 14h363m-363-294h363"/>
    </g>
    <g class="highcharts-grid highcharts-yaxis-grid">
        <path fill="none" stroke="#e6e6e6" class="highcharts-grid-line" d="M111.5 55v294m52-294v294m52-294v294m52-294v294m51-294v294m52-294v294m52-294v294m53-294v294"/>
    </g>
    <path fill="none" class="highcharts-plot-border" d="M112 55h363v294H112z"/>
    <g class="highcharts-axis highcharts-xaxis">
        <path fill="none" class="highcharts-tick" stroke="#FFF" d="M112 69.5h-10m10 14h-10m10 14h-10m10 14h-10m10 14h-10m10 14h-10m10 14h-10m10 14h-10m10 14h-10m10 14h-10m10 14h-10m10 14h-10m10 14h-10m10 14h-10m10 14h-10m10 14h-10m10 14h-10m10 14h-10m10 14h-10m10 14h-10m10 14h-10m10-295h-10"/>
        <path fill="none" class="highcharts-axis-line" stroke="#ccd6eb" d="M111.5 55v294"/>
    </g>
    <g class="highcharts-axis highcharts-yaxis">
        <path fill="none" class="highcharts-axis-line" d="M112 349h363"/>
    </g>
    <g class="highcharts-series-group">
        <g class="highcharts-markers highcharts-series-0 highcharts-scatter-series highcharts-color-undefined">
            <path fill="#68AB2B" d="M159 58a4 4 0 1 1 .004 0zm120 14a4 4 0 1 1 .004 0zm38 14a4 4 0 1 1 .004 0zm41 14a4 4 0 1 1 .004 0zm13 14a4 4 0 1 1 .004 0zm1 14a4 4 0 1 1 .004 0zm6 14a4 4 0 1 1 .004 0zm8 14a4 4 0 1 1 .004 0zm2 14a4 4 0 1 1 .004 0zm0 14a4 4 0 1 1 .004 0zm2 14a4 4 0 1 1 .004 0zm6 14a4 4 0 1 1 .004 0zm1 14a4 4 0 1 1 .004 0zm2 14a4 4 0 1 1 .004 0zm5 14a4 4 0 1 1 .004 0zm2 14a4 4 0 1 1 .004 0zm10 14a4 4 0 1 1 .004 0zm4 14a4 4 0 1 1 .004 0zm0 14a4 4 0 1 1 .004 0zm18 14a4 4 0 1 1 .004 0zm10 14a4 4 0 1 1 .004 0z" class="highcharts-point"/>
        </g>
    </g>
    <text x="10" class="highcharts-title" y="21" color="#000" font-size="14" font-weight="700">
        <tspan>Baujahr Wohngebäude</tspan>
    </text>
    <text x="10" class="highcharts-subtitle" y="40" color="#000" font-weight="400">
        <tspan>Stand: 2016</tspan>
    </text>
    <g class="highcharts-axis-labels highcharts-xaxis-labels" text-anchor="end" color="#000" cursor="default" font-size="10">
        <text x="97" y="66">
            <tspan>Altstadt Grossbasel</tspan>
        </text>
        <text x="97" y="80">
            <tspan>Altstadt Kleinbasel</tspan>
        </text>
        <text x="97" y="94">
            <tspan>Vorstädte</tspan>
        </text>
        <text x="97" y="108">
            <tspan>Am Ring</tspan>
        </text>
        <text x="97" y="122">
            <tspan>Gotthelf</tspan>
        </text>
        <text x="97" y="136">
            <tspan>Matthäus</tspan>
        </text>
        <text x="97" y="150">
            <tspan>Clara</tspan>
        </text>
        <text x="97" y="164">
            <tspan>Gundeldingen</tspan>
        </text>
        <text x="97" y="178">
            <tspan>St. Johann</tspan>
        </text>
        <text x="97" y="192">
            <tspan>Wettstein</tspan>
        </text>
        <text x="97" y="206">
            <tspan>Bachletten</tspan>
        </text>
        <text x="97" y="220">
            <tspan>Klybeck</tspan>
        </text>
        <text x="97" y="234">
            <tspan>Iselin</tspan>
        </text>
        <text x="97" y="248">
            <tspan>St. Alban</tspan>
        </text>
        <text x="97" y="262">
            <tspan>Breite</tspan>
        </text>
        <text x="97" y="276">
            <tspan>Hirzbrunnen</tspan>
        </text>
        <text x="97" y="290">
            <tspan>Kleinhüningen</tspan>
        </text>
        <text x="97" y="304">
            <tspan>Bruderholz</tspan>
        </text>
        <text x="97" y="318">
            <tspan>Rosental</tspan>
        </text>
        <text x="97" y="332">
            <tspan>Riehen</tspan>
        </text>
        <text x="97" y="346">
            <tspan>Bettingen</tspan>
        </text>
    </g>
    <g class="highcharts-axis-labels highcharts-yaxis-labels" text-anchor="middle" color="#000" cursor="default" font-size="11">
        <text x="112" y="368">
            1800
        </text>
        <text x="163.857" y="368">
            1825
        </text>
        <text x="215.714" y="368">
            1850
        </text>
        <text x="267.571" y="368">
            1875
        </text>
        <text x="319.429" y="368">
            1900
        </text>
        <text x="371.286" y="368">
            1925
        </text>
        <text x="423.143" y="368">
            1950
        </text>
        <text x="462.781" y="368">
            1975
        </text>
    </g>
    <text x="10" class="highcharts-credits" y="400" cursor="default" color="#000" font-size="10">
        <tspan>Quelle: Statistisches Amt Basel-Stadt, kantonale Gebäude- und Wohnungsstatistik</tspan>
    </text>
</svg>
